_inc/images/systems/logos/daphne.svg

<svg viewBox="0 0 3839 1042.4" xmlns="http://www.w3.org/2000/svg">
    <path class="st97" d="M3396.4 555.9c2.5-20.3 5.9-39.9 10.1-58.7 57.7 7.2 115.4 14.8 173 22.9 16.7 2.3 21.9 18.6 9.8 27 32-18.1 64.3-40.4 94.7-65.2-87.5-12.9-175.1-24.9-262.8-35.9 33.3-93.6 98-154.9 209.3-139.3 129.4 18.6 110.4 123.7 110.4 123.6 45.3-45.8 81.6-95.4 98-140.6 0 0-14.7 12.5-28.2 10.4-125.6-19.6-251.3-37.2-377.3-52.9-16.4-2-32.7-4-49.1-6-16.1-1.9-32.1-3.8-48.2-5.7-.2 1.9-.5 3.9-.7 5.8 5.7.7 11.2 2 16.2 4 17.3 6.7 21.4 27.9 7.9 39.6-29 25.2-76.4 87.8-87.2 184.1-39.1 364.2 181 519.5 392.5 567.5-227.6-76.1-294.3-267.8-268.4-480.6Zm-872.6-387.6c-17.3-.8-34.6-1.7-51.9-2.4-.1 2-.2 3.9-.3 5.9 28.7 1.3 51.1 20.2 50 42.2-2.5 51-5 102-7.5 153.1-76.2-3.7-152.3-6.7-228.6-9 1.5-51.1 3.1-102.1 4.6-153.2.6-22 24.4-39.1 53.1-38.1.1-2 .1-3.9.2-5.9-17.3-.6-34.6-1.1-52-1.7-40.2-1.2-80.4-2.2-120.5-3-17.3-.3-34.7-.7-52-.9 0 2-.1 3.9-.1 5.9 28.7.4 51.6 18.7 51.2 40.7l-13.2 658.5c-.5 22-22.7 39.3-49.6 38.9 0 2-.1 3.9-.1 5.9 16.3.3 32.5.5 48.8.9 37.7.8 75.4 1.7 113.1 2.8 16.3.5 32.5 1 48.8 1.6.1-2 .1-3.9.2-5.9-26.9-.9-48.2-19.4-47.6-41.3l13.5-452.5c75.9 2.3 151.7 5.3 227.6 9-7.4 150.7-14.8 301.5-22.2 452.2-1.1 22-23.8 38.7-50.7 37.5-.1 2-.2 3.9-.3 5.9 16.3.7 32.5 1.5 48.8 2.3 37.7 1.8 75.4 3.9 113 6.1 16.2 1 32.5 1.9 48.7 3 .1-2 .2-3.9.4-5.9-26.9-1.7-47.7-20.8-46.4-42.7 12.9-219.2 25.8-438.3 38.7-657.5 1.3-21.9 25.5-38.4 54.2-36.6.1-2 .2-3.9.4-5.9-17.3-1.1-34.6-2.1-51.9-3.2-40.1-2.6-80.3-4.8-120.4-6.7Zm752.5 60.2c-17.2-1.9-34.5-3.8-51.8-5.6l-45.6-4.8c-17.3-1.8-34.5-3.5-51.8-5.2-.2 1.9-.4 3.9-.6 5.8 28.6 2.8 49.9 22.9 47.7 44.8-6.9 67.2-13.9 134.5-20.8 201.7-43.3-121.2-145.8-233.6-334.8-294.9-.3-.2-114.8 109.5-114.5 109.7 17.5-.2 32 2.1 43.6 6.8 17 6.4 20.8 16.1 19.9 29.6-13.3 189.8-26.5 379.7-39.8 569.5-1.5 21.9-24.6 38.2-51.5 36.4-.1 2-.3 3.9-.4 5.9 16.2 1.1 32.5 2.2 48.7 3.3 14.3 1 28.6 2 42.9 3.1 16.2 1.2 32.5 2.4 48.7 3.7.2-1.9.3-3.9.5-5.8-26.9-2.1-47.4-21.5-45.8-43.4 14.2-192.6 28.4-385.3 42.5-577.9 81.7 5.5 204.1 98.7 265 229.6 61.8 131 62.3 299.6-80.2 457.3 89.9-53.7 157.7-137.6 178.8-333.5 14.1-132.1 28.2-264.1 42.4-396.2 2.3-21.8 27.4-37.1 56-33.9.5-2.1.7-4.1.9-6Z" style="fill:#fff"/>
    <path class="st97" d="M1878.2 143c-55.4.2-121.2 15.9-181.7 36-103.6 34.3-191.7 81.4-191.7 81.4 1.1 1.8 2.1 3.6 3.2 5.3 37.1-16.1 54.1-3.1 54.5 9.8 5.9 195.8 11.8 391.7 17.7 587.5.6 22-20.7 40.4-47.6 41.3.1 2 .1 3.9.2 5.9 16.3-.6 32.5-1.1 48.8-1.6 37.7-1.1 75.4-2.1 113.1-2.8l48.8-.9c0-2-.1-3.9-.1-5.9-26.9.4-49.1-16.9-49.6-38.9-3.5-174.6-7.1-349.2-10.6-523.8-.2-44.8 14.6-81.2 40-109 25.4-27.7 62.5-41.9 110.9-42.3 73.7-.5 123.1 70.9 123 70.9-27.6 39.7-54.9 79.5-82 119.3-50.1 30-99.7 60.4-149.1 91 77.2-24.7 155-48.7 233.1-71.9-.5-.3 150.5-133.5 158.1-140.9.4.4-80.4-110.9-239-110.4Zm-567.1 26.1c-106.8 5.4-213.6 12.2-320.4 20.4.1 1.9.3 3.9.4 5.9 16.4-1.3 31.4 3.5 41.6 11.8 10.4 8.6 10.8 23.8 1.4 33.5-84.9 83.8-236.6 578.3 139.2 758-201.5-210.8-178-756.4 140-783.7 2.5 49.1 4.9 98.1 7.4 147.2l.3 5.7c-57.2 2.9-114.3 6.2-171.4 9.9-13.6 24.8-24.5 51.9-32.9 80.4 0 0 10.6-26.2 49.1-28.7 52.6-3.4 105.2-6.4 157.9-9 7.6 150.7 15.2 301.4 22.8 452.2 1.1 22-19.9 40.8-46.8 42.3.1 2 .2 3.9.3 5.9 16.2-.9 32.5-1.7 48.7-2.6 37.7-1.9 75.4-3.6 113.1-5.1 16.3-.7 32.5-1.3 48.8-1.9-.1-2-.1-3.9-.2-5.9-26.9 1-49.5-15.9-50.4-37.9l-18.3-452.4c-.7-17.5-1.4-35.1-2.1-52.6-2.1-51-4.1-102.1-6.2-153.1-.9-21.9 21.6-40.7 50.3-41.8-.1-2-.1-3.9-.2-5.9-41.7 1.5-83.4 3.2-125.2 5.2-15.7.7-31.5 1.4-47.2 2.2ZM880.4 97.8C834.8 57.5 627.9-19.6 427.8 4.6 224.3 28.5 35.3 153.9 0 204.9c.3 1.9.6 3.9.9 5.8 37.3-5.9 71.1 12.4 75.5 40.6 37.6 246.1 75.2 492.3 112.7 738.4 4.3 28.4-7.8 39.6-42.7 45.1.4 2.5.8 5 1.2 7.6 92.9-14.6 185.8-28 278.9-40.3 0 0 44.4-25 114.8-65.6 255.2-147 365-442.3 352-617-4.5-57-24.9-119.6-56.9-198.4 11.3-9.4 26.9-15.9 44.5-17.4-.1-2-.3-3.9-.5-5.9ZM726.6 392.5c-2.4 158.6-105.2 387.8-359.7 540.2-20.1 12-36.3-5.7-39.3-26.7-18-129.1-83.4-597.9-83.4-597.9-10.7-76-7.7-210.5 191.4-235.3 256.9-30.1 292.7 208.3 291 319.7Z" style="fill:#fff"/>
</svg>

<?xml version="1.0" encoding="utf-8"?>
<svg version="1.1" viewBox="0 0 3839 1042.4" xmlns="http://www.w3.org/2000/svg">
  <path class="st97" d="M 3396.4 555.9 C 3398.9 535.6 3402.3 516 3406.5 497.2 C 3464.2 504.4 3521.9 512 3579.5 520.1 C 3596.2 522.4 3601.4 538.7 3589.3 547.1 C 3621.3 529 3653.6 506.7 3684 481.9 C 3596.5 469 3508.9 457 3421.2 446 C 3454.5 352.4 3519.2 291.1 3630.5 306.7 C 3759.9 325.3 3740.9 430.4 3740.9 430.3 C 3786.2 384.5 3822.5 334.9 3838.9 289.7 C 3838.9 289.7 3824.2 302.2 3810.7 300.1 C 3685.1 280.5 3559.4 262.9 3433.4 247.2 C 3417 245.2 3400.7 243.2 3384.3 241.2 C 3368.2 239.3 3352.2 237.4 3336.1 235.5 C 3335.9 237.4 3335.6 239.4 3335.4 241.3 C 3341.1 242 3346.6 243.3 3351.6 245.3 C 3368.9 252 3373 273.2 3359.5 284.9 C 3330.5 310.1 3283.1 372.7 3272.3 469 C 3233.2 833.2 3453.3 988.5 3664.8 1036.5 C 3437.2 960.4 3370.5 768.7 3396.4 555.9 Z" style="fill: rgb(255, 255, 255);"/>
  <path class="st97" d="M 2523.8 168.3 C 2506.5 167.5 2489.2 166.6 2471.9 165.9 C 2471.8 167.9 2471.7 169.8 2471.6 171.8 C 2500.3 173.1 2522.7 192 2521.6 214 C 2519.1 265 2516.6 316 2514.1 367.1 C 2437.9 363.4 2361.8 360.4 2285.5 358.1 C 2287 307 2288.6 256 2290.1 204.9 C 2290.7 182.9 2314.5 165.8 2343.2 166.8 C 2343.3 164.8 2343.3 162.9 2343.4 160.9 C 2326.1 160.3 2308.8 159.8 2291.4 159.2 C 2251.2 158 2211 157 2170.9 156.2 C 2153.6 155.9 2136.2 155.5 2118.9 155.3 C 2118.9 157.3 2118.8 159.2 2118.8 161.2 C 2147.5 161.6 2170.4 179.9 2170 201.9 C 2170 201.9 2170 201.9 2170 201.9 C 2165.6 421.4 2161.2 640.9 2156.8 860.4 C 2156.8 860.4 2156.8 860.4 2156.8 860.4 C 2156.3 882.4 2134.1 899.7 2107.2 899.3 C 2107.2 901.3 2107.1 903.2 2107.1 905.2 C 2123.4 905.5 2139.6 905.7 2155.9 906.1 C 2193.6 906.9 2231.3 907.8 2269 908.9 C 2285.3 909.4 2301.5 909.9 2317.8 910.5 C 2317.9 908.5 2317.9 906.6 2318 904.6 C 2291.1 903.7 2269.8 885.2 2270.4 863.3 C 2274.9 712.5 2279.4 561.6 2283.9 410.8 C 2359.8 413.1 2435.6 416.1 2511.5 419.8 C 2504.1 570.5 2496.7 721.3 2489.3 872 C 2489.3 872 2489.3 872 2489.3 872 C 2488.2 894 2465.5 910.7 2438.6 909.5 C 2438.5 911.5 2438.4 913.4 2438.3 915.4 C 2454.6 916.1 2470.8 916.9 2487.1 917.7 C 2524.8 919.5 2562.5 921.6 2600.1 923.8 C 2616.3 924.8 2632.6 925.7 2648.8 926.8 C 2648.9 924.8 2649 922.9 2649.2 920.9 C 2622.3 919.2 2601.5 900.1 2602.8 878.2 C 2615.7 659 2628.6 439.9 2641.5 220.7 C 2641.5 220.7 2641.5 220.7 2641.5 220.7 C 2642.8 198.8 2667 182.3 2695.7 184.1 C 2695.8 182.1 2695.9 180.2 2696.1 178.2 C 2678.8 177.1 2661.5 176.1 2644.2 175 C 2604.1 172.4 2563.9 170.2 2523.8 168.3 Z" style="fill: rgb(255, 255, 255);"/>
  <path class="st97" d="M 3276.3 228.5 C 3259.1 226.6 3241.8 224.7 3224.5 222.9 C 3209.3 221.3 3194.1 219.7 3178.9 218.1 C 3161.6 216.3 3144.4 214.6 3127.1 212.9 C 3126.9 214.8 3126.7 216.8 3126.5 218.7 C 3155.1 221.5 3176.4 241.6 3174.2 263.5 C 3174.2 263.5 3174.2 263.5 3174.2 263.5 C 3174.2 263.5 3174.2 263.5 3174.2 263.5 C 3167.3 330.7 3160.3 398 3153.4 465.2 C 3110.1 344 3007.6 231.6 2818.6 170.3 C 2818.3 170.1 2703.8 279.8 2704.1 280 C 2721.6 279.8 2736.1 282.1 2747.7 286.8 C 2764.7 293.2 2768.5 302.9 2767.6 316.4 C 2754.3 506.2 2741.1 696.1 2727.8 885.9 C 2727.8 885.9 2727.8 885.9 2727.8 885.9 L 2727.8 885.9 C 2726.3 907.8 2703.2 924.1 2676.3 922.3 C 2676.2 924.3 2676 926.2 2675.9 928.2 C 2692.1 929.3 2708.4 930.4 2724.6 931.5 C 2738.9 932.5 2753.2 933.5 2767.5 934.6 C 2783.7 935.8 2800 937 2816.2 938.3 C 2816.4 936.4 2816.5 934.4 2816.7 932.5 C 2789.8 930.4 2769.3 911 2770.9 889.1 C 2770.9 889.1 2770.9 889.1 2770.9 889.1 C 2785.1 696.5 2799.3 503.8 2813.4 311.2 C 2895.1 316.7 3017.5 409.9 3078.4 540.8 C 3140.2 671.8 3140.7 840.4 2998.2 998.1 C 3088.1 944.4 3155.9 860.5 3177 664.6 C 3177 664.6 3177 664.6 3177 664.6 C 3191.1 532.5 3205.2 400.5 3219.4 268.4 C 3221.7 246.6 3246.8 231.3 3275.4 234.5 C 3275.9 232.4 3276.1 230.4 3276.3 228.5 Z" style="fill: rgb(255, 255, 255);"/>
  <path class="st97" d="M 1878.2 143 C 1822.8 143.2 1757 158.9 1696.5 179 C 1592.9 213.3 1504.8 260.4 1504.8 260.4 C 1505.9 262.2 1506.9 264 1508 265.7 C 1545.1 249.6 1562.1 262.6 1562.5 275.5 C 1568.4 471.3 1574.3 667.2 1580.2 863 C 1580.2 863 1580.2 863 1580.2 863 C 1580.8 885 1559.5 903.4 1532.6 904.3 C 1532.7 906.3 1532.7 908.2 1532.8 910.2 C 1549.1 909.6 1565.3 909.1 1581.6 908.6 C 1619.3 907.5 1657 906.5 1694.7 905.8 C 1711 905.5 1727.2 905.2 1743.5 904.9 C 1743.5 902.9 1743.4 901 1743.4 899 C 1743.4 899 1743.4 899 1743.4 899 C 1716.5 899.4 1694.3 882.1 1693.8 860.1 C 1693.8 860.1 1693.8 860.1 1693.8 860.1 C 1690.3 685.5 1686.7 510.9 1683.2 336.3 C 1683 291.5 1697.8 255.1 1723.2 227.3 C 1748.6 199.6 1785.7 185.4 1834.1 185 C 1907.8 184.5 1957.2 255.9 1957.1 255.9 C 1929.5 295.6 1902.2 335.4 1875.1 375.2 C 1825 405.2 1775.4 435.6 1726 466.2 C 1803.2 441.5 1881 417.5 1959.1 394.3 C 1958.6 394 2109.6 260.8 2117.2 253.4 C 2117.6 253.8 2036.8 142.5 1878.2 143 Z" style="fill: rgb(255, 255, 255);"/>
  <path class="st97" d="M 1311.1 169.1 C 1204.3 174.5 1097.5 181.3 990.7 189.5 C 990.8 191.4 991 193.4 991.1 195.4 C 1007.5 194.1 1022.5 198.9 1032.7 207.2 C 1043.1 215.8 1043.5 231 1034.1 240.7 C 949.2 324.5 797.5 819 1173.3 998.7 C 971.8 787.9 995.3 242.3 1313.3 215 C 1315.8 264.1 1318.2 313.1 1320.7 362.2 C 1320.8 364.1 1320.9 366 1321 367.9 C 1263.8 370.8 1206.7 374.1 1149.6 377.8 L 1149.6 377.8 C 1136 402.6 1125.1 429.7 1116.7 458.2 C 1116.7 458.2 1127.3 432 1165.8 429.5 C 1218.4 426.1 1271 423.1 1323.7 420.5 C 1331.3 571.2 1338.9 721.9 1346.5 872.7 C 1346.5 872.7 1346.5 872.7 1346.5 872.7 C 1347.6 894.7 1326.6 913.5 1299.7 915 C 1299.8 917 1299.9 918.9 1300 920.9 C 1316.2 920 1332.5 919.2 1348.7 918.3 C 1386.4 916.4 1424.1 914.7 1461.8 913.2 C 1478.1 912.5 1494.3 911.9 1510.6 911.3 C 1510.5 909.3 1510.5 907.4 1510.4 905.4 C 1483.5 906.4 1460.9 889.5 1460 867.5 L 1460 867.5 C 1453.9 716.7 1447.8 565.9 1441.7 415.1 C 1441 397.6 1440.3 380 1439.6 362.5 C 1437.5 311.5 1435.5 260.4 1433.4 209.4 C 1433.4 209.4 1433.4 209.4 1433.4 209.4 C 1432.5 187.5 1455 168.7 1483.7 167.6 C 1483.6 165.6 1483.6 163.7 1483.5 161.7 C 1441.8 163.2 1400.1 164.9 1358.3 166.9 C 1342.6 167.6 1326.8 168.3 1311.1 169.1 Z" style="fill: rgb(255, 255, 255);"/>
  <path class="st97" d="M 880.4 97.8 C 834.8 57.5 627.9 -19.6 427.8 4.6 C 224.3 28.5 35.3 153.9 0 204.9 C 0.3 206.8 0.6 208.8 0.9 210.7 C 0.9 210.7 0.9 210.7 0.9 210.7 C 38.2 204.8 72 223.1 76.4 251.3 C 114 497.4 151.6 743.6 189.1 989.7 C 193.4 1018.1 181.3 1029.3 146.4 1034.8 C 146.8 1037.3 147.2 1039.8 147.6 1042.4 C 240.5 1027.8 333.4 1014.4 426.5 1002.1 C 426.5 1002.1 470.9 977.1 541.3 936.5 C 796.5 789.5 906.3 494.2 893.3 319.5 C 888.8 262.5 868.4 199.9 836.4 121.1 C 847.7 111.7 863.3 105.2 880.9 103.7 C 880.8 101.7 880.6 99.8 880.4 97.8 Z M 726.6 392.5 C 724.2 551.1 621.4 780.3 366.9 932.7 C 346.8 944.7 330.6 927 327.6 906 C 309.6 776.9 244.2 308.1 244.2 308.1 C 233.5 232.1 236.5 97.6 435.6 72.8 C 692.5 42.7 728.3 281.1 726.6 392.5 Z" style="fill: rgb(255, 255, 255);"/>
</svg>
